Numix-Square/48x48/apps/fogger.svg

<svg xmlns="http://www.w3.org/2000/svg" xmlns:xlink="http://www.w3.org/1999/xlink" width="48" viewBox="0 0 13.546667 13.546667" height="48">
 <defs>
  <clipPath>
   <rect width="16" x="432" y="116" rx="3" height="16" color="#bebebe"/>
  </clipPath>
  <clipPath>
   <rect width="22" x="433" y="77" rx="5" height="22" color="#bebebe"/>
  </clipPath>
  <clipPath>
   <rect width="20" x="434" y="78" rx="4" height="20" color="#bebebe"/>
  </clipPath>
  <clipPath>
   <rect width="60" x="306" y="142" rx="12.5" height="60" transform="matrix(0 -1 1 0 0 0)" fill="url(#3)" color="#bebebe"/>
  </clipPath>
  <clipPath>
   <rect width="22" x="433" y="77" rx="4" height="22" color="#bebebe"/>
  </clipPath>
  <clipPath>
   <rect width="30" x="433" y="29" rx="6" height="30" color="#bebebe"/>
  </clipPath>
  <clipPath>
   <rect width="42" x="307" y="223" rx="9" height="42" transform="rotate(90)" fill="url(#6)" color="#bebebe"/>
  </clipPath>
  <clipPath>
   <rect width="22" x="433" y="77" rx="5" height="22" color="#bebebe"/>
  </clipPath>
  <clipPath>
   <rect width="90" x="307" y="31" rx="18.75" height="90" fill="url(#0)" color="#bebebe"/>
  </clipPath>
  <clipPath>
   <rect width="22" x="433" y="77" rx="3" height="22" opacity="0.2" fill="#6d6d6d" color="#bebebe"/>
  </clipPath>
  <clipPath>
   <rect width="16" x="432" y="116" rx="2" height="16" opacity="0.2" fill="#6d6d6d" color="#bebebe"/>
  </clipPath>
  <clipPath>
   <rect width="30" x="433" y="29" rx="4" height="30" opacity="0.2" fill="#6d6d6d" color="#bebebe"/>
  </clipPath>
  <clipPath>
   <rect width="30" x="433" y="29" rx="6" height="30" color="#bebebe"/>
  </clipPath>
  <clipPath>
   <rect width="16" x="432" y="116" rx="2" height="16" opacity="0.2" fill="#6d6d6d" color="#bebebe"/>
  </clipPath>
  <clipPath>
   <rect width="90" x="307" y="31" rx="18.75" height="90" fill="url(#5)" color="#bebebe"/>
  </clipPath>
  <clipPath>
   <path d="m 104,100 0,40 -40,0 0,40 40,0 0,40 40,0 80,0 0,-120 -80,0 -40,0 z"/>
  </clipPath>
  <clipPath>
   <rect width="240" x="24" y="36" rx="50" height="240" fill="#986767" color="#bebebe"/>
  </clipPath>
  <clipPath>
   <rect width="240" x="24" y="36" rx="50" height="240" fill="#986767" color="#bebebe"/>
  </clipPath>
  <clipPath>
   <rect width="22" x="433" y="77" rx="3" height="22" opacity="0.2" fill="#6d6d6d" color="#bebebe"/>
  </clipPath>
  <clipPath>
   <rect width="22" x="433" y="77" rx="4" height="22" color="#bebebe"/>
  </clipPath>
  <clipPath>
   <rect width="30" x="433" y="29" rx="4" height="30" opacity="0.2" fill="#6d6d6d" color="#bebebe"/>
  </clipPath>
  <clipPath>
   <rect width="60" x="306" y="142" rx="12.5" height="60" transform="matrix(0 -1 1 0 0 0)" fill="url(#4)" color="#bebebe"/>
  </clipPath>
  <clipPath>
   <rect width="16" x="432" y="116" rx="3" height="16" color="#bebebe"/>
  </clipPath>
  <clipPath>
   <rect width="20" x="434" y="78" rx="4" height="20" color="#bebebe"/>
  </clipPath>
  <clipPath>
   <rect width="42" x="307" y="223" rx="9" height="42" transform="rotate(90)" fill="url(#2)" color="#bebebe"/>
  </clipPath>
  <linearGradient gradientTransform="matrix(.375 0 0 .375 298 16)" id="0" xlink:href="#7" y1="230" y2="90" x2="0" gradientUnits="userSpaceOnUse"/>
  <linearGradient id="1">
   <stop stop-color="#e0491e"/>
   <stop offset="1" stop-color="#f77737"/>
  </linearGradient>
  <linearGradient gradientTransform="matrix(.175 0 0 .175 302.79999 215.99997)" id="2" xlink:href="#8" y1="280" y2="40" x2="0" gradientUnits="userSpaceOnUse"/>
  <linearGradient gradientTransform="matrix(.25 0 0 .25 299.99999 131.99999)" id="3" xlink:href="#7" y1="230" y2="90" x2="0" gradientUnits="userSpaceOnUse"/>
  <linearGradient gradientTransform="matrix(.25 0 0 .25 299.99999 131.99999)" id="4" xlink:href="#8" y1="230" y2="90" x2="0" gradientUnits="userSpaceOnUse"/>
  <linearGradient gradientTransform="matrix(.375 0 0 .375 298 16)" id="5" xlink:href="#8" y1="230" y2="90" x2="0" gradientUnits="userSpaceOnUse"/>
  <linearGradient gradientTransform="matrix(.175 0 0 .175 302.79999 215.99997)" id="6" xlink:href="#7" y1="280" y2="40" x2="0" gradientUnits="userSpaceOnUse"/>
  <linearGradient id="7">
   <stop stop-color="#323232"/>
   <stop offset="1" stop-color="#767676"/>
  </linearGradient>
  <linearGradient id="8">
   <stop stop-color="#f3f3f3"/>
   <stop offset="1" stop-color="#fff"/>
  </linearGradient>
  <clipPath>
   <rect height="208.57" y="1580.93" x="-830" width="477.14" fill="#ff0"/>
  </clipPath>
  <clipPath>
   <rect height="208.57" y="1580.93" x="-830" width="477.14" fill="#ff0"/>
  </clipPath>
  <clipPath>
   <rect height="208.57" y="1580.93" x="-830" width="477.14" fill="#ff0"/>
  </clipPath>
  <clipPath>
   <rect height="208.57" y="1580.93" x="-830" width="477.14" fill="#ff0"/>
  </clipPath>
  <clipPath>
   <rect transform="matrix(.99975 -.02255 .02255 .99975 0 0)" height="240.87" y="780.64" x="294.93" width="357.87" fill="#f00"/>
  </clipPath>
  <clipPath>
   <rect height="195" y="857.54" width="301.43" fill="#fff"/>
  </clipPath>
  <clipPath>
   <rect height="208.57" y="1580.93" x="-830" width="477.14" fill="#ff0"/>
  </clipPath>
  <clipPath>
   <rect height="30.01" y="977.09" x="276.37" width="79.48" fill="#e20a17"/>
  </clipPath>
  <clipPath>
   <rect transform="rotate(20.37582)" height="37.48" y="0.064" x="8.208" width="506.46" fill="#162d50"/>
  </clipPath>
  <clipPath>
   <rect transform="rotate(.22918)" height="318.4" y="758.67" x="218.9" width="357.38" fill="#fff"/>
  </clipPath>
  <clipPath>
   <rect transform="rotate(.22918)" height="318.4" y="758.67" x="218.9" width="357.38" fill="#fff"/>
  </clipPath>
  <clipPath>
   <rect transform="rotate(20.37582)" height="37.48" y="0.064" x="8.208" width="506.46" fill="#162d50"/>
  </clipPath>
  <clipPath>
   <rect height="208.57" y="1580.93" x="-830" width="477.14" fill="#ff0"/>
  </clipPath>
  <clipPath>
   <rect transform="rotate(.6171)" height="235.88" y="804.24" x="221.39" width="350.46"/>
  </clipPath>
  <clipPath>
   <rect transform="rotate(.16206)" height="279.03" y="793.52" x="257.32" width="287.43" fill="#fff"/>
  </clipPath>
  <clipPath>
   <rect height="195" y="0.06" width="301.43" fill="#fff"/>
  </clipPath>
  <clipPath>
   <rect height="195" y="857.54" width="301.43" fill="#fff"/>
  </clipPath>
  <path clip-path="url(#B)" id="9" d="m 699.2857,672.93231 a 40.714287,40.714287 0 1 1 -81.42858,0 40.714287,40.714287 0 1 1 81.42858,0 z" fill="#4a0"/>
  <clipPath>
   <use xlink:href="#9" transform="matrix(4.3233 0 0 4.3233 -2450.68 -2667.55)"/>
  </clipPath>
  <clipPath>
   <rect transform="rotate(27.44968)" height="41.39" y="815.74" x="448.12" width="63.987" fill="#fff"/>
  </clipPath>
  <clipPath>
   <rect height="195" y="857.54" width="301.43" fill="#fff"/>
  </clipPath>
  <clipPath>
   <rect height="208.57" y="1580.93" x="-830" width="477.14" fill="#ff0"/>
  </clipPath>
  <clipPath>
   <rect height="208.57" y="1580.93" x="-830" width="477.14" fill="#ff0"/>
  </clipPath>
  <clipPath>
   <rect height="208.57" y="1580.93" x="-830" width="477.14" fill="#ff0"/>
  </clipPath>
  <clipPath>
   <rect height="208.57" y="1580.93" x="-830" width="477.14" fill="#ff0"/>
  </clipPath>
  <clipPath>
   <rect height="208.57" y="1580.93" x="-830" width="477.14" fill="#ff0"/>
  </clipPath>
  <clipPath>
   <use xlink:href="#9"/>
  </clipPath>
  <clipPath>
   <rect height="208.57" y="1580.93" x="-830" width="477.14" fill="#ff0"/>
  </clipPath>
  <path id="A" d="m 699.2857,672.93231 a 40.714287,40.714287 0 1 1 -81.42858,0 40.714287,40.714287 0 1 1 81.42858,0 z" fill="#4a0"/>
  <clipPath id="B">
   <use xlink:href="#A"/>
  </clipPath>
  <clipPath>
   <use transform="matrix(4.3233 0 0 4.3233 -2450.68 -2667.55)" xlink:href="#A"/>
  </clipPath>
  <linearGradient gradientTransform="matrix(0.28222223,0,0,0.28222223,0,-283.45334)" xlink:href="#1" id="C" y1="1050.36" x2="0" y2="1006.36" gradientUnits="userSpaceOnUse"/>
 </defs>
 <g transform="matrix(0.28222223,0,0,0.28222223,0,-283.45334)">
  <path transform="translate(0,1004.3622)" d="M 5.1875,1 C 2.8707723,1 1,2.8707723 1,5.1875 l 0,37.625 C 1,45.129228 2.8707723,47 5.1875,47 l 37.625,0 C 45.129228,47 47,45.129228 47,42.8125 L 47,5.1875 C 47,2.8707723 45.129228,1 42.8125,1 L 5.1875,1 z m 0.1875,0.25 37.25,0 c 2.291546,0 4.125,1.8334541 4.125,4.125 l 0,37.25 c 0,2.291546 -1.833454,4.125 -4.125,4.125 l -37.25,0 C 3.0834541,46.75 1.25,44.916546 1.25,42.625 l 0,-37.25 C 1.25,3.0834541 3.0834541,1.25 5.375,1.25 z" opacity="0.05"/>
  <path transform="translate(0,1004.3622)" d="M 5.375,1.25 C 3.0834541,1.25 1.25,3.0834541 1.25,5.375 l 0,37.25 c 0,2.291546 1.8334541,4.125 4.125,4.125 l 37.25,0 c 2.291546,0 4.125,-1.833454 4.125,-4.125 l 0,-37.25 C 46.75,3.0834541 44.916546,1.25 42.625,1.25 l -37.25,0 z m 0.21875,0.25 36.8125,0 C 44.672614,1.5 46.5,3.3273859 46.5,5.59375 l 0,36.8125 C 46.5,44.672614 44.672614,46.5 42.40625,46.5 l -36.8125,0 C 3.3273859,46.5 1.5,44.672614 1.5,42.40625 l 0,-36.8125 C 1.5,3.3273859 3.3273859,1.5 5.59375,1.5 z" opacity="0.1"/>
  <path transform="translate(0,1004.3622)" d="M 5.59375,1.5 C 3.3273859,1.5 1.5,3.3273859 1.5,5.59375 l 0,36.8125 C 1.5,44.672614 3.3273859,46.5 5.59375,46.5 l 36.8125,0 C 44.672614,46.5 46.5,44.672614 46.5,42.40625 l 0,-36.8125 C 46.5,3.3273859 44.672614,1.5 42.40625,1.5 l -36.8125,0 z m 0.09375,0.125 36.625,0 c 2.253773,0 4.0625,1.8087269 4.0625,4.0625 l 0,36.625 c 0,2.253773 -1.808727,4.0625 -4.0625,4.0625 l -36.625,0 c -2.2537731,0 -4.0625,-1.808727 -4.0625,-4.0625 l 0,-36.625 C 1.625,3.4337269 3.4337269,1.625 5.6875,1.625 z" opacity="0.2"/>
  <path transform="translate(0,1004.3622)" d="M 5.6875,1.625 C 3.4337269,1.625 1.625,3.4337269 1.625,5.6875 l 0,36.625 c 0,2.253773 1.8087269,4.0625 4.0625,4.0625 l 36.625,0 c 2.253773,0 4.0625,-1.808727 4.0625,-4.0625 l 0,-36.625 c 0,-2.2537731 -1.808727,-4.0625 -4.0625,-4.0625 l -36.625,0 z m 0.09375,0.125 36.4375,0 c 2.241182,0 4.03125,1.7900679 4.03125,4.03125 l 0,36.4375 c 0,2.241182 -1.790068,4.03125 -4.03125,4.03125 l -36.4375,0 C 3.5400679,46.25 1.75,44.459932 1.75,42.21875 l 0,-36.4375 C 1.75,3.5400679 3.5400679,1.75 5.78125,1.75 z" opacity="0.3"/>
  <path transform="translate(0,1004.3622)" d="M 5.78125,1.75 C 3.5400679,1.75 1.75,3.5400679 1.75,5.78125 l 0,36.4375 c 0,2.241182 1.7900679,4.03125 4.03125,4.03125 l 36.4375,0 c 2.241182,0 4.03125,-1.790068 4.03125,-4.03125 l 0,-36.4375 C 46.25,3.5400679 44.459932,1.75 42.21875,1.75 l -36.4375,0 z m 0.125,0.125 36.1875,0 c 2.228591,0 4.03125,1.802659 4.03125,4.03125 l 0,36.1875 c 0,2.228591 -1.802659,4.03125 -4.03125,4.03125 l -36.1875,0 C 3.677659,46.125 1.875,44.322341 1.875,42.09375 l 0,-36.1875 C 1.875,3.677659 3.677659,1.875 5.90625,1.875 z" opacity="0.4"/>
  <rect width="44.25" height="44.25" x="1.875" y="1006.24" rx="4.02" opacity="0.5"/>
 </g>
 <rect width="12.418" height="12.418" x="0.564" y="0.564" rx="1.129" fill="url(#C)"/>
 <path d="M 21.1875 15 C 20.620872 15.01658 20.039567 15.110781 19.46875 15.3125 C 17.026614 16.175388 15.170053 18.675888 14.625 21.78125 C 13.021312 22.183434 11.629461 23.668401 11.15625 25.78125 C 10.484554 28.780602 11.89338 31.875046 14.28125 32.71875 C 14.32035 32.73058 14.36712 32.7393 14.40625 32.75 C 14.736054 32.898029 15.066191 33 15.4375 33 L 32.78125 33 C 33.400925 33 33.952914 32.763238 34.4375 32.375 C 36.372856 31.214304 37.444291 28.462782 36.84375 25.78125 C 36.400068 23.800108 35.161551 22.346519 33.6875 21.84375 C 33.67474 21.77743 33.67092 21.722567 33.65625 21.65625 C 32.984542 18.656913 30.481597 16.906295 28.09375 17.75 C 27.635356 17.912237 27.228209 18.178936 26.84375 18.5 C 25.527175 16.278544 23.420034 14.937189 21.1875 15 z M 24 19 L 25 21 L 23 21 L 24 19 z M 18 20 L 20 20 L 20 21 L 19 21 L 19 22 L 20 22 L 20 24 L 19 24 L 19 25 L 20 25 L 20 27 L 19 27 L 19 28 L 20 28 L 20 30 L 19 30 L 19 31 L 20 31 L 20 32 L 18 32 L 18 20 z M 28.75 20.40625 L 28.75 21.5 C 28.622435 21.5906 28.53125 21.737871 28.53125 21.90625 C 28.53125 22.182392 28.755108 22.40625 29.03125 22.40625 C 29.307392 22.40625 29.53125 22.182392 29.53125 21.90625 C 29.53125 21.714298 29.408706 21.552548 29.25 21.46875 L 29.25 20.40625 C 29.643073 21.009446 30.2482 21.945717 29.90625 22.5625 C 29.576701 23.156909 28.427143 23.15386 28.09375 22.5625 C 27.750037 21.952837 28.345346 21.011453 28.75 20.40625 z M 23 22 L 25 22 L 25 32 L 23 32 L 23 22 z M 28 24 L 30 24 L 30 32 L 28 32 L 28 24 z " transform="scale(0.28222223,0.28222223)" fill="#f9f9f9"/>
</svg>

<svg viewBox="0 0 48 48"><defs><linearGradient id="linearGradient3764" x1="1" x2="47" gradientUnits="userSpaceOnUse" gradientTransform="translate(-47.997785,0.00221467)"><stop stop-color="#f15f1f" stop-opacity="1"/><stop offset="1" stop-color="#f26d32" stop-opacity="1"/></linearGradient><clipPath id="clipPath-809214282"><g transform="translate(0,-1004.3622)"><rect rx="4" y="1005.36" x="1" height="46" width="46" fill="#1890d0"/></g></clipPath><clipPath id="clipPath-817261530"><g transform="translate(0,-1004.3622)"><rect rx="4" y="1005.36" x="1" height="46" width="46" fill="#1890d0"/></g></clipPath></defs><g><g transform="translate(0,-1004.3622)"><path d="m 5 1006.36 c -2.216 0 -4 1.784 -4 4 l 0 37.25 c 0 2.216 1.784 4 4 4 l 38 0 c 2.216 0 4 -1.784 4 -4 l 0 -37.25 c 0 -2.216 -1.784 -4 -4 -4 l -38 0 z m -4 41.5 0 0.5 c 0 2.216 1.784 4 4 4 l 38 0 c 2.216 0 4 -1.784 4 -4 l 0 -0.5 c 0 2.216 -1.784 4 -4 4 l -38 0 c -2.216 0 -4 -1.784 -4 -4 z" opacity="0.02"/><path d="m 1 1047.61 0 0.25 c 0 2.216 1.784 4 4 4 l 38 0 c 2.216 0 4 -1.784 4 -4 l 0 -0.25 c 0 2.216 -1.784 4 -4 4 l -38 0 c -2.216 0 -4 -1.784 -4 -4 z" opacity="0.05"/><rect width="46" height="46" x="1" y="1005.61" rx="4" opacity="0.1"/></g></g><g><rect width="46" height="46" x="-46.998" y="1" rx="4" transform="matrix(0,-1,1,0,0,0)" fill="url(#linearGradient3764)" fill-opacity="1"/></g><g/><g><g clip-path="url(#clipPath-809214282)"><g opacity="0.1"><!-- color: #f26d32 --><g><path d="m 21.19 15 c -0.57 0.016 -1.148 0.109 -1.719 0.313 c -2.445 0.863 -4.301 3.363 -4.844 6.469 c -1.605 0.402 -2.996 1.887 -3.48 4 c -0.672 3 0.738 6.094 3.125 6.938 c 0.039 0.012 0.086 0.023 0.125 0.031 c 0.332 0.148 0.66 0.25 1.031 0.25 l 17.344 0 c 0.621 0 1.172 -0.234 1.656 -0.625 c 1.938 -1.16 3.01 -3.91 2.406 -6.594 c -0.441 -1.98 -1.68 -3.434 -3.156 -3.938 c -0.012 -0.066 -0.016 -0.121 -0.031 -0.188 c -0.672 -3 -3.172 -4.75 -5.563 -3.906 c -0.457 0.16 -0.863 0.43 -1.25 0.75 c -1.316 -2.223 -3.422 -3.563 -5.656 -3.5 m 2.816 4 l 1 2 l -2 0 m -5 -1 l 2 0 l 0 1 l -1 0 l 0 1 l 1 0 l 0 2 l -1 0 l 0 1 l 1 0 l 0 2 l -1 0 l 0 1 l 1 0 l 0 2 l -1 0 l 0 1 l 1 0 l 0 1 l -2 0 m 10.75 -11.594 l 0 1.094 c -0.129 0.09 -0.219 0.238 -0.219 0.406 c 0 0.277 0.223 0.5 0.5 0.5 c 0.273 0 0.5 -0.223 0.5 -0.5 c 0 -0.191 -0.125 -0.355 -0.281 -0.438 l 0 -1.063 c 0.391 0.602 0.996 1.539 0.656 2.156 c -0.332 0.594 -1.48 0.59 -1.813 0 c -0.344 -0.613 0.25 -1.551 0.656 -2.156 m -5.75 1.594 l 2 0 l 0 10 l -2 0 m 5 -8 l 2 0 l 0 8 l -2 0 m 0 -8" stroke="none" fill-rule="nonzero" fill-opacity="1" fill="#000"/></g></g></g></g><g><g clip-path="url(#clipPath-817261530)"><g transform="translate(0,-1)"><!-- color: #f26d32 --><g><path d="m 21.19 15 c -0.57 0.016 -1.148 0.109 -1.719 0.313 c -2.445 0.863 -4.301 3.363 -4.844 6.469 c -1.605 0.402 -2.996 1.887 -3.48 4 c -0.672 3 0.738 6.094 3.125 6.938 c 0.039 0.012 0.086 0.023 0.125 0.031 c 0.332 0.148 0.66 0.25 1.031 0.25 l 17.344 0 c 0.621 0 1.172 -0.234 1.656 -0.625 c 1.938 -1.16 3.01 -3.91 2.406 -6.594 c -0.441 -1.98 -1.68 -3.434 -3.156 -3.938 c -0.012 -0.066 -0.016 -0.121 -0.031 -0.188 c -0.672 -3 -3.172 -4.75 -5.563 -3.906 c -0.457 0.16 -0.863 0.43 -1.25 0.75 c -1.316 -2.223 -3.422 -3.563 -5.656 -3.5 m 2.816 4 l 1 2 l -2 0 m -5 -1 l 2 0 l 0 1 l -1 0 l 0 1 l 1 0 l 0 2 l -1 0 l 0 1 l 1 0 l 0 2 l -1 0 l 0 1 l 1 0 l 0 2 l -1 0 l 0 1 l 1 0 l 0 1 l -2 0 m 10.75 -11.594 l 0 1.094 c -0.129 0.09 -0.219 0.238 -0.219 0.406 c 0 0.277 0.223 0.5 0.5 0.5 c 0.273 0 0.5 -0.223 0.5 -0.5 c 0 -0.191 -0.125 -0.355 -0.281 -0.438 l 0 -1.063 c 0.391 0.602 0.996 1.539 0.656 2.156 c -0.332 0.594 -1.48 0.59 -1.813 0 c -0.344 -0.613 0.25 -1.551 0.656 -2.156 m -5.75 1.594 l 2 0 l 0 10 l -2 0 m 5 -8 l 2 0 l 0 8 l -2 0 m 0 -8" fill="#f9f9f9" stroke="none" fill-rule="nonzero" fill-opacity="1"/></g></g></g></g><g><g transform="translate(0,-1004.3622)"><path d="m 1 1043.36 0 4 c 0 2.216 1.784 4 4 4 l 38 0 c 2.216 0 4 -1.784 4 -4 l 0 -4 c 0 2.216 -1.784 4 -4 4 l -38 0 c -2.216 0 -4 -1.784 -4 -4 z" opacity="0.1"/></g></g></svg>
